@extra/phlat-icons/symbolic/audacious.svg

<?xml version="1.0" encoding="UTF-8" standalone="no"?>
<svg
   xmlns:dc="http://purl.org/dc/elements/1.1/"
   xmlns:cc="http://creativecommons.org/ns#"
   xmlns:rdf="http://www.w3.org/1999/02/22-rdf-syntax-ns#"
   xmlns:svg="http://www.w3.org/2000/svg"
   xmlns="http://www.w3.org/2000/svg"
   version="1.1"
   width="16"
   height="16"
   id="svg7">
  <metadata
     id="metadata13">
    <rdf:RDF>
      <cc:Work
         rdf:about="">
        <dc:format>image/svg+xml</dc:format>
        <dc:type
           rdf:resource="http://purl.org/dc/dcmitype/StillImage" />
        <dc:title></dc:title>
      </cc:Work>
    </rdf:RDF>
  </metadata>
  <defs
     id="defs11" />
  <path
     style="fill:#f1f2f2;stroke-width:0.31742153"
     d="M 7.6886869,1.9648348 C 6.2893721,1.9411737 4.6081212,2.3234539 3.5062583,3.0686328 2.774709,3.5309402 2.9107274,4.5690102 3.5235112,5.0671918 4.2542597,5.6373439 5.1701778,4.9616438 6,5.0476568 7.0068737,4.7231387 7.4045643,6.2296547 6.3565221,6.3683082 5.0093193,6.785272 3.8936109,6.8420626 2.86222,7.9331621 1.7368031,9.2162029 1.8157766,11.289797 2.910141,12.567161 c 0.9437916,1.24644 2.8167736,1.92858 4.1920119,1.006117 1.5331368,-1.371514 2.780356,0.320064 4.1920131,0.357513 0.800822,0.05689 1.973523,-0.562555 2.192804,-1.4281 0.773275,-1.95641 0.502791,-4.0216005 0.276017,-6.1089863 C 13.744557,4.3091876 11.978008,2.6586407 10.078924,2.2090386 9.4896689,2.0496737 8.8768909,1.9782279 8.2675557,2 8.0816187,1.9799264 7.8885892,1.9682149 7.6886869,1.9648348 Z M 7.9225346,9.0017939 A 0.98139473,1.0002567 0 0 1 8.9039293,10.00205 0.98139473,1.0002567 0 0 1 7.9225346,11.002306 0.98139473,1.0002567 0 0 1 6.9411399,10.00205 0.98139473,1.0002567 0 0 1 7.9225346,9.0017939 Z"
     id="path5" />
</svg>

<svg xmlns="http://www.w3.org/2000/svg" viewBox="0 0 16 16">
    <path d="M7.689 1.965c-1.4-.024-3.08.358-4.183 1.104-.731.462-.595 1.5.018 1.998.73.57 1.646-.105 2.476-.02 1.007-.324 1.405 1.183.357 1.321-1.348.417-2.463.474-3.495 1.565-1.125 1.283-1.046 3.357.048 4.634.944 1.247 2.817 1.929 4.192 1.006 1.533-1.371 2.78.32 4.192.358.801.057 1.974-.563 2.193-1.428.773-1.957.503-4.022.276-6.11-.018-2.084-1.785-3.734-3.684-4.184A6.115 6.115 0 0 0 8.268 2a6.404 6.404 0 0 0-.58-.035zm.234 7.037a.981 1 0 0 1 .98 1 .981 1 0 0 1-.98 1 .981 1 0 0 1-.982-1 .981 1 0 0 1 .982-1z" fill="#f1f2f2"/>
</svg>
